X: 229
T: O'er the Lee
%R: reel
B: "Twenty Four Country Dances for the Year 1793", Preston & Son, eds. p.95
F: http://www.vwml.org/browse/browse-collections-dance-tune-books/browse-prestons1793# 2014-8-7
Z: 2014 John Chambers <jc:trillian.mit.edu>
M: C|
L: 1/8
K: D
A, |\
DEFG AFGB | AFED E3A, | DEFG AFAd | AGFE D3 :|
|: g |\
(f/g/a) fe defe | dBAF E3g | (f/g/a) fe defe | dBAF D3 :|
|: A |\
FADA FADA | GBAF E3A | FADA FAD(A/B/) | AGFE D3 :|
|: g |\
(f/g/a) fe defe | dBAF E3g | (f/g/a) fe defe | dBAF D3 :|
% = = = = = = = = = = = = = = = = = = = = = = = = =
%%begintext align
%% Turn your Part.r with the right hand & cast off 1 Cu: .| turn
%% with your left hand the Lady fall in at the top the Gent.n at
%% bottom :| Set 3 & 3 top & bottom :|. Sett 3 & 3 sideways :|:
%% Swing corners .|| lead thro the bottom come up 1 Cu:
%% lead thro the top & cast off :||:
%%endtext
% = = = = = = = = = = = = = = = = = = = = = = = = =

%%sep 1 1 500
%%sep 1 1 500
